!!!COM: Hicks, Laurence Henry
!!!CDT: b.1954
!!!OTL: National Anthem, Nauru
!!!ENC: Davis, Matthew J.
!!Vocal Line Only
**kern
*clefG2
*k[b-]
*F:
*M4/4
=1-
4a
2cc
4f
=2
4e
2f
4cc
=3
4.dd
8cc
4b-
4a
=4
2.g
4g
=5
2a
4bn
8a
8g
=6
2cc
4g
8cc
8dd
=7
4ee
4ee
4dd
4dd
=8
2.cc
8.g
16a
=9
4.b-
8a
4g
8.a
16b-
4.cc
8b-
4a
4a
=11
4.b-
8a
4g
4dd
=12
2.cc
4c
=13
4a
2cc
8.a
16f
=14
4b-
4cc
4dd
4ff
=15
4gg
4gg
4ff
4ee
=16
2.ff
8ee
8ff
=17
4.gg
8ee
4cc
4gg
=18
4.aa
8gg
4ff
4ff
=19
4.ff
8ee
8gg
8ff
8ee
8dd
=20
2.cc
8ee
8ff
=21
4.gg
8ee
4cc
8dd
8ee
=22
4ff
4gg
4aa
4dd
=23
4.cc
8ff
4aa
4gg
=24
2.ff
4r
==|!
*-
